src/images_karasa_jaga_svg/cmd/32/rowheight.svg

<svg height="32" width="32" xmlns="http://www.w3.org/2000/svg" xmlns:xlink="http://www.w3.org/1999/xlink"><linearGradient id="a" gradientUnits="userSpaceOnUse" x1="42" x2="72.138878" y1="118.03125" y2="5.551427"><stop offset="0" stop-color="#084775"/><stop offset="1" stop-color="#084775" stop-opacity="0"/></linearGradient><linearGradient id="b"><stop offset="0" stop-color="#828282"/><stop offset="1" stop-color="#828282" stop-opacity="0"/></linearGradient><linearGradient id="c" gradientTransform="matrix(1.0384874 0 0 1.2391614 2.461539 4.865601)" gradientUnits="userSpaceOnUse" x1="46.048" x2="46.048" y1="128.01709" y2="16.6203"><stop offset="0" stop-color="#c7cdd7"/><stop offset="1" stop-color="#fff"/></linearGradient><clipPath id="d"><path d="m-23.029324-146.61201c-5.531616-.24083-10.64527 3.53552-12 8.96875-.000021.0104-.000021.0208 0 .0312l-2.8125 11.40625h-6.03125c-6.441349 0-11.84375 5.4024-11.84375 11.84375v8c0 5.84595 4.517586 10.626564 10.15625 11.5l-4.125 16.65625h-6.1875c-6.441349 0-11.84375 5.402402-11.84375 11.84375v8c0 5.890458 4.58168 10.71459 10.28125 11.53125l-.84375 3.4375c-1.553679 6.23113 2.382454 12.78725 8.625 14.34375l7.78125 1.9375c6.231123 1.55368 12.818494-2.3825 14.375-8.625.000021-.01042.000021-.02083 0-.03125l2.65625-10.75h14.65625l-.78125 3.125c-1.553681 6.23114 2.382455 12.78725 8.625 14.34375l7.78125 1.9375c6.213771 1.54936 12.804599-2.45209 14.34375-8.625.000021-.01042.000021-.02083 0-.03125l2.65625-10.75h9.6875c6.44135 0 11.84375-5.402396 11.84375-11.84375v-8c0-6.441353-5.4024-11.84375-11.84375-11.84375h-1.875l4.03125-16.3125h9.84375c6.44135 0 11.84375-5.402396 11.84375-11.84375v-8c0-6.44135-5.4024-11.84375-11.84375-11.84375h-2.03125l.9375-3.78125c1.55369-6.23115-2.3825-12.78724-8.625-14.34375l-7.78125-1.9375c-6.231121-1.55367-12.818487 2.38251-14.375 8.625-.000021.0104-.000021.0208 0 .0312l-2.8125 11.40625h-14.625l.9375-3.78125c1.571025-6.30072-2.431097-12.79157-8.65625-14.34375l-7.75-1.9375c-.677154-.16884-1.43324-.30275-2.375-.34375zm10.03125 52.09375h14.625l-4.03125 16.3125h-14.625z"/></clipPath><filter id="e"><feGaussianBlur stdDeviation="1.2346784"/></filter><linearGradient id="f" gradientTransform="matrix(.6442951 0 0 1 32.724854 0)" gradientUnits="userSpaceOnUse" x1="92.000008" x2="129.25002" y1="69.875" y2="69.875"><stop offset="0" stop-color="#fff"/><stop offset="1" stop-color="#fff" stop-opacity="0"/></linearGradient><mask id="g" maskUnits="userSpaceOnUse"><path d="m3.750004 11.249995h112.249986v117.250015h-112.249986z" fill="url(#f)"/></mask><mask id="h" maskUnits="userSpaceOnUse"><path d="m7.000004 11.249995h105.249986v117.250015h-105.249986z" fill="url(#f)"/></mask><linearGradient id="i" gradientUnits="userSpaceOnUse" x1="124" x2="124" y1="-32.325989" y2="104.05867"><stop offset="0" stop-color="#fff"/><stop offset="1" stop-color="#555"/></linearGradient><linearGradient id="j" gradientUnits="userSpaceOnUse" x1="104" x2="124" xlink:href="#b" y1="74" y2="74"/><linearGradient id="k" gradientUnits="userSpaceOnUse" x1="104" x2="124" xlink:href="#b" y1="54" y2="54"/><linearGradient id="l" gradientTransform="matrix(0 -1 1 0 -55.994245 155.999995)" gradientUnits="userSpaceOnUse" x1="114.65708" x2="60" y1="60.886047" y2="59.988499"><stop offset="0" stop-color="#0968ef"/><stop offset="1" stop-color="#aecffc"/></linearGradient><g transform="scale(.25)"><path d="m8 28h108v76h-108z" fill="url(#c)" mask="url(#h)" transform="matrix(1 0 0 .20773629 12 50.395426)"/><text x="552.36987" y="202.81038"><tspan fill="#555" x="552.36987" y="219.61037"/></text><text x="284.18808" y="202.81038"><tspan fill="#555" x="284.18808" y="219.61037"/></text><text x="-10.252362" y="133.87732"><tspan fill="#555" x="-10.252362" y="150.67731"/></text><text x="161.66467" y="-39.856026"><tspan fill="#555" x="161.66467" y="-23.056038"/></text><path clip-path="url(#d)" d="m22.5 42.5-2.25 15.5 14-11.75zm21.75.5 12 14.625 11-.125 17.25-12.75zm50 2 9.25 12.375h6l4.5-11.375zm-83.5 46.75-2.25 13.375 14.5-10.875zm91 1.25-18 1 7.75 11.375 7.25-.5zm-31 .5-34.5.25 8.75 12.8125 10.3125-.9375z" fill="url(#a)" fill-rule="evenodd" filter="url(#e)" transform="translate(118.47918 -240.81844)"/><path clip-path="url(#d)" d="m22.5 42.5-8.662305 12.749263 6.412305 2.750737 14-11.75zm71.75 2.5 9.25 12.375 18.02082 1.06066-7.52082-12.43566zm-83.5 46.75-10.20495127 12.66789 22.45495127-10.16789zm91 1.25-18 1 7.75 11.375 17.14949.38388z" fill="url(#a)" fill-rule="evenodd" filter="url(#e)" opacity=".450495" transform="translate(118.47918 -240.81844)"/><text x="580.14136" y="354.79312"><tspan fill="#555" x="580.14136" y="371.59311"/></text><text x="311.95953" y="354.79312"><tspan fill="#555" x="311.95953" y="371.59311"/></text><text x="17.519104" y="285.86008"><tspan fill="#555" x="17.519104" y="302.66006"/></text><text x="189.43614" y="112.12672"><tspan fill="#555" x="189.43614" y="128.92671"/></text><path d="m104 72h20v4h-20z" fill="url(#j)"/><path d="m104 52h20v4h-20z" fill="url(#k)"/><path d="m8 44v4 16 4h4 24 4 24 4 24 4v-4-16-4h-4-24-4-24-4-24zm4 4h24v16h-24zm28 0h24v16h-24zm28 0h24v16h-24z" fill="url(#i)" mask="url(#g)" transform="translate(8 8)"/><path d="m0 52v4h4.0058594v16h-4.0058594v4h4.0058594 3.9941406 4v-4h-4v-16h4v-4h-4-3.9941406z" fill="url(#l)" fill-rule="evenodd"/></g></svg>

<?xml version="1.0" encoding="UTF-8" standalone="no"?>
<svg
   xmlns:dc="http://purl.org/dc/elements/1.1/"
   xmlns:cc="http://creativecommons.org/ns#"
   xmlns:rdf="http://www.w3.org/1999/02/22-rdf-syntax-ns#"
   xmlns:svg="http://www.w3.org/2000/svg"
   xmlns="http://www.w3.org/2000/svg"
   xmlns:xlink="http://www.w3.org/1999/xlink"
   xmlns:sodipodi="http://sodipodi.sourceforge.net/DTD/sodipodi-0.dtd"
   xmlns:inkscape="http://www.inkscape.org/namespaces/inkscape"
   height="128"
   width="128"
   version="1.1"
   id="svg106"
   sodipodi:docname="rowheight.svg"
   inkscape:version="0.92.3 (unknown)"
   inkscape:export-filename="/home/rizmut/Dokumen/Rizmut/Github/libreoffice-style-karasa-jaga/build/images_karasa_jaga/cmd/32/rowheight.png"
   inkscape:export-xdpi="24"
   inkscape:export-ydpi="24">
  <metadata
     id="metadata112">
    <rdf:RDF>
      <cc:Work
         rdf:about="">
        <dc:format>image/svg+xml</dc:format>
        <dc:type
           rdf:resource="http://purl.org/dc/dcmitype/StillImage" />
        <dc:title></dc:title>
      </cc:Work>
    </rdf:RDF>
  </metadata>
  <defs
     id="defs110" />
  <sodipodi:namedview
     pagecolor="#ffffff"
     bordercolor="#666666"
     borderopacity="1"
     objecttolerance="10"
     gridtolerance="10"
     guidetolerance="10"
     inkscape:pageopacity="0"
     inkscape:pageshadow="2"
     inkscape:window-width="1366"
     inkscape:window-height="706"
     id="namedview108"
     showgrid="true"
     inkscape:zoom="3.6875"
     inkscape:cx="35.735093"
     inkscape:cy="63.437139"
     inkscape:window-x="0"
     inkscape:window-y="0"
     inkscape:window-maximized="1"
     inkscape:current-layer="svg106">
    <inkscape:grid
       type="xygrid"
       id="grid919"
       spacingx="4"
       spacingy="4"
       empspacing="2" />
  </sodipodi:namedview>
  <linearGradient
     id="a">
    <stop
       offset="0"
       stop-color="#828282"
       id="stop2" />
    <stop
       offset="1"
       stop-color="#828282"
       stop-opacity="0"
       id="stop4" />
  </linearGradient>
  <linearGradient
     id="b"
     gradientTransform="matrix(1.0384874,0,0,1.2391614,2.461539,4.865601)"
     gradientUnits="userSpaceOnUse"
     x1="46.048"
     x2="46.048"
     y1="128.01709"
     y2="16.6203">
    <stop
       offset="0"
       stop-color="#c7cdd7"
       id="stop7" />
    <stop
       offset="1"
       stop-color="#fff"
       id="stop9" />
  </linearGradient>
  <clipPath
     id="c">
    <path
       d="m-23.029324-146.61201c-5.531616-.24083-10.64527 3.53552-12 8.96875-.000021.01042-.000021.02083 0 .03125l-2.8125 11.40625h-6.03125c-6.441349 0-11.84375 5.4024-11.84375 11.84375v8c0 5.84595 4.517586 10.626564 10.15625 11.5l-4.125 16.65625h-6.1875c-6.441349 0-11.84375 5.402402-11.84375 11.84375v8c0 5.890458 4.58168 10.71459 10.28125 11.53125l-.84375 3.4375c-1.553679 6.23113 2.382454 12.78725 8.625 14.34375l7.78125 1.9375c6.231123 1.55368 12.818494-2.3825 14.375-8.625.000021-.01042.000021-.02083 0-.03125l2.65625-10.75h14.65625l-.78125 3.125c-1.553681 6.23114 2.382455 12.78725 8.625 14.34375l7.78125 1.9375c6.213771 1.54936 12.804599-2.45209 14.34375-8.625.000021-.01042.000021-.02083 0-.03125l2.65625-10.75h9.6875c6.44135 0 11.84375-5.402396 11.84375-11.84375v-8c0-6.441353-5.4024-11.84375-11.84375-11.84375h-1.875l4.03125-16.3125h9.84375c6.44135 0 11.84375-5.402396 11.84375-11.84375v-8c0-6.44135-5.4024-11.84375-11.84375-11.84375h-2.03125l.9375-3.78125c1.55369-6.23115-2.3825-12.78724-8.625-14.34375l-7.78125-1.9375c-6.231121-1.55367-12.818487 2.38251-14.375 8.625-.000021.01042-.000021.02083 0 .03125l-2.8125 11.40625h-14.625l.9375-3.78125c1.571025-6.30072-2.431097-12.79157-8.65625-14.34375l-7.75-1.9375c-.677154-.16884-1.43324-.30275-2.375-.34375zm10.03125 52.09375h14.625l-4.03125 16.3125h-14.625z"
       id="path12" />
  </clipPath>
  <filter
     id="d">
    <feGaussianBlur
       stdDeviation="1.2346784"
       id="feGaussianBlur15" />
  </filter>
  <linearGradient
     gradientUnits="userSpaceOnUse"
     x1="52.126926"
     x2="52.126926"
     y1="-30.36201"
     y2="-142.433416"
     id="linearGradient22">
    <stop
       offset="0"
       stop-color="#403a3a"
       id="stop18" />
    <stop
       offset="1"
       stop-color="#6a5252"
       id="stop20" />
  </linearGradient>
  <linearGradient
     id="e"
     gradientUnits="userSpaceOnUse"
     x1="42"
     x2="72.138878"
     y1="118.03125"
     y2="5.551427">
    <stop
       offset="0"
       stop-color="#084775"
       id="stop24" />
    <stop
       offset="1"
       stop-color="#084775"
       stop-opacity="0"
       id="stop26" />
  </linearGradient>
  <linearGradient
     id="f"
     gradientTransform="matrix(.6442951 0 0 1 32.724854 0)"
     gradientUnits="userSpaceOnUse"
     x1="92.000008"
     x2="129.25001"
     y1="69.874999"
     y2="69.874999">
    <stop
       offset="0"
       stop-color="#fff"
       id="stop29" />
    <stop
       offset="1"
       stop-color="#fff"
       stop-opacity="0"
       id="stop31" />
  </linearGradient>
  <mask
     id="g"
     maskUnits="userSpaceOnUse">
    <path
       d="m3.750004 11.249995h112.24999v117.25001h-112.24999z"
       fill="url(#f)"
       id="path34" />
  </mask>
  <mask
     id="h"
     maskUnits="userSpaceOnUse">
    <path
       d="m7.000004 11.249995h105.24999v117.25001h-105.24999z"
       fill="url(#f)"
       id="path37" />
  </mask>
  <linearGradient
     id="i">
    <stop
       offset="0"
       stop-color="#0968ef"
       id="stop40" />
    <stop
       offset="1"
       stop-color="#aecffc"
       id="stop42" />
  </linearGradient>
  <linearGradient
     id="j"
     gradientUnits="userSpaceOnUse"
     x1="124"
     x2="124"
     y1="-32.325989"
     y2="104.05867">
    <stop
       offset="0"
       stop-color="#fff"
       id="stop45" />
    <stop
       offset="1"
       stop-color="#555"
       id="stop47" />
  </linearGradient>
  <linearGradient
     id="k"
     gradientUnits="userSpaceOnUse"
     x1="96"
     x2="116"
     xlink:href="#a"
     y1="74"
     y2="74"
     gradientTransform="translate(8)" />
  <linearGradient
     id="l"
     gradientUnits="userSpaceOnUse"
     x1="96"
     x2="116"
     xlink:href="#a"
     y1="54"
     y2="54"
     gradientTransform="translate(8)" />
  <linearGradient
     id="m"
     gradientTransform="matrix(0,0.49928121,0.49928121,0,52.023,58.1598)"
     gradientUnits="userSpaceOnUse"
     x1="113.15723"
     x2="-4.325819"
     xlink:href="#i"
     y1="25.786163"
     y2="24.000002" />
  <linearGradient
     id="n"
     gradientUnits="userSpaceOnUse"
     x1="114.65708171465"
     x2="60.00000026073"
     xlink:href="#i"
     y1="60.8860466639"
     y2="59.98849981687"
     gradientTransform="rotate(-90,50.002875,105.99712)" />
  <path
     d="m 8,28 h 108 v 76 H 8 Z"
     mask="url(#h)"
     transform="matrix(1,0,0,0.20773629,12,50.395426)"
     id="path54"
     style="fill:url(#b)"
     inkscape:connector-curvature="0" />
  <text
     x="552.36987"
     y="202.81038"
     id="text58">
    <tspan
       fill="#555"
       x="552.36987"
       y="219.61037"
       id="tspan56" />
  </text>
  <path
     d="m92 44v44h4v-44z"
     fill="#fff"
     opacity=".262911"
     id="path60" />
  <text
     x="284.18808"
     y="202.81038"
     id="text64">
    <tspan
       fill="#555"
       x="284.18808"
       y="219.61037"
       id="tspan62" />
  </text>
  <text
     x="-10.252362"
     y="133.87732"
     id="text68">
    <tspan
       fill="#555"
       x="-10.252362"
       y="150.67731"
       id="tspan66" />
  </text>
  <text
     x="161.66467"
     y="-39.856026"
     id="text72">
    <tspan
       fill="#555"
       x="161.66467"
       y="-23.056038"
       id="tspan70" />
  </text>
  <path
     clip-path="url(#c)"
     d="m22.5 42.5-2.25 15.5 14-11.75zm21.75.5 12 14.625 11-.125 17.25-12.75zm50 2 9.25 12.375h6l4.5-11.375zm-83.5 46.75-2.25 13.375 14.5-10.875zm91 1.25-18 1 7.75 11.375 7.25-.5zm-31 .5-34.5.25 8.75 12.8125 10.3125-.9375z"
     fill="url(#e)"
     fill-rule="evenodd"
     filter="url(#d)"
     transform="translate(118.47918 -240.81844)"
     id="path74" />
  <path
     clip-path="url(#c)"
     d="m22.5 42.5-8.662305 12.749263 6.412305 2.750737 14-11.75zm71.75 2.5 9.25 12.375 18.02082 1.06066-7.52082-12.43566zm-83.5 46.75-10.20495127 12.66789 22.45495127-10.16789zm91 1.25-18 1 7.75 11.375 17.14949.38388z"
     fill="url(#e)"
     fill-rule="evenodd"
     filter="url(#d)"
     opacity=".450495"
     transform="translate(118.47918 -240.81844)"
     id="path76" />
  <text
     x="580.14136"
     y="354.79312"
     id="text80">
    <tspan
       fill="#555"
       x="580.14136"
       y="371.59311"
       id="tspan78" />
  </text>
  <text
     x="311.95953"
     y="354.79312"
     id="text84">
    <tspan
       fill="#555"
       x="311.95953"
       y="371.59311"
       id="tspan82" />
  </text>
  <text
     x="17.519104"
     y="285.86008"
     id="text88">
    <tspan
       fill="#555"
       x="17.519104"
       y="302.66006"
       id="tspan86" />
  </text>
  <text
     x="189.43614"
     y="112.12672"
     id="text92">
    <tspan
       fill="#555"
       x="189.43614"
       y="128.92671"
       id="tspan90" />
  </text>
  <path
     d="m 104,72 h 20 v 4 h -20 z"
     id="path94"
     style="fill:url(#k)"
     inkscape:connector-curvature="0" />
  <path
     d="m 104,52 h 20 v 4 h -20 z"
     id="path96"
     style="fill:url(#l)"
     inkscape:connector-curvature="0" />
  <path
     d="m 8,44 v 4 16 4 h 4 24 4 24 4 24 4 V 64 48 44 H 92 68 64 40 36 12 Z m 4,4 H 36 V 64 H 12 Z m 28,0 H 64 V 64 H 40 Z m 28,0 H 92 V 64 H 68 Z"
     mask="url(#g)"
     transform="translate(8,8)"
     id="path98"
     style="fill:url(#j)"
     inkscape:connector-curvature="0" />
  <path
     style="fill:url(#n);fill-rule:evenodd"
     d="M 0 52 L 0 56 L 4.0058594 56 L 4.0058594 72 L 0 72 L 0 76 L 4.0058594 76 L 8 76 L 12 76 L 12 72 L 8 72 L 8 56 L 12 56 L 12 52 L 8 52 L 4.0058594 52 L 0 52 z "
     id="path100" />
</svg>
